img/clock.svg

<svg width="14" height="14" viewBox="0 0 14 14" fill="none" xmlns="http://www.w3.org/2000/svg">
<path d="M6.99334 0.333344C3.31334 0.333344 0.333336 3.32001 0.333336 7.00001C0.333336 10.68 3.31334 13.6667 6.99334 13.6667C10.68 13.6667 13.6667 10.68 13.6667 7.00001C13.6667 3.32001 10.68 0.333344 6.99334 0.333344ZM7 12.3333C4.05334 12.3333 1.66667 9.94668 1.66667 7.00001C1.66667 4.05334 4.05334 1.66668 7 1.66668C9.94667 1.66668 12.3333 4.05334 12.3333 7.00001C12.3333 9.94668 9.94667 12.3333 7 12.3333ZM7.33334 3.66668H6.33334V7.66668L9.83334 9.76668L10.3333 8.94668L7.33334 7.16668V3.66668Z" fill="#888888"/>
</svg>

<svg width="14" height="14" fill="none" xmlns="http://www.w3.org/2000/svg"><path d="M6.993.333A6.663 6.663 0 0 0 .333 7c0 3.68 2.98 6.667 6.66 6.667A6.67 6.67 0 0 0 13.667 7 6.67 6.67 0 0 0 6.993.333Zm.007 12A5.332 5.332 0 0 1 1.667 7 5.332 5.332 0 0 1 7 1.667 5.332 5.332 0 0 1 12.333 7 5.332 5.332 0 0 1 7 12.333Zm.333-8.666h-1v4l3.5 2.1.5-.82-3-1.78v-3.5Z" fill="#888"/></svg>
